X:1
T:Rogue's March
L:1/8
M:2/4
S:Thompson and Sons' Compleat Tutor for the Fife, London 1759-60.
Q:240
K:G
BB (3Bcd|ee e2|dd de|d2 B2|BB (3Bcd|ee e2|dd (3dcB|A2 G2:|
g2 f2|e2 d2|g2 f2|e2 d2|BB (3Bcd|ee e2|dd de|d2 B2|BB (3Bcd|
ee e2|dd gB|A2 G2||
